X: 32456
T: Piss Upon The Grass
R: jig
M: 6/8
K: Gmajor
|:G2G G2c|d2B A2G|A2B A2B|A2G FED|
G2G G3/2A/B/c/|d2B G2B|A2G F2E|D6:|
|:A2B A2B|A2B AFD|B2c d2e|d2e dBG|
c2B c2d|e2f gfe|dcB AGF|G6:|

